flaticon/casino-gambling/chip-4.svg

<svg xmlns="http://www.w3.org/2000/svg" width="32" height="32" viewBox="0 0 24 24">
    <path d="M 23.839844 14 L 23.859375 13.84375 C 23.9375 13.316406 23.984375 12.78125 23.996094 12.238281 C 24 12.160156 24 12.078125 24 12 C 24 11.921875 24 11.84375 23.996094 11.761719 C 23.984375 11.21875 23.9375 10.683594 23.859375 10.15625 L 23.839844 10 L 23.832031 10 C 23.519531 8.167969 22.789062 6.472656 21.742188 5.015625 L 21.761719 5 L 21.558594 4.71875 C 20.878906 3.839844 20.078125 3.078125 19.199219 2.398438 L 18.921875 2.160156 L 18.890625 2.191406 C 17.457031 1.179688 15.792969 0.472656 14 0.167969 L 14 0.160156 L 13.742188 0.128906 C 13.523438 0.09375 13.304688 0.0703125 13.082031 0.0507812 C 13.0625 0.046875 13.039062 0.046875 13.019531 0.0429688 C 12.972656 0.0390625 12.921875 0.0351562 12.871094 0.03125 C 12.789062 0.0273438 12.703125 0.0195312 12.621094 0.015625 C 12.613281 0.015625 12.609375 0.015625 12.601562 0.015625 C 12.511719 0.0117188 12.417969 0.0078125 12.324219 0.00390625 C 12.316406 0.00390625 12.304688 0.00390625 12.296875 0.00390625 C 12.199219 0 12.105469 0 12.007812 0 C 12.003906 0 12.003906 0 12 0 C 11.984375 0 11.96875 0 11.949219 0 C 11.894531 0 11.835938 0 11.777344 0.00390625 C 11.230469 0.0117188 10.6875 0.0585938 10.15625 0.140625 L 10 0.160156 L 10 0.167969 C 8.234375 0.46875 6.597656 1.15625 5.179688 2.140625 L 5.160156 2.121094 L 4.878906 2.320312 C 4 3 3.199219 3.761719 2.480469 4.640625 L 2.28125 4.921875 L 2.308594 4.949219 C 1.234375 6.417969 0.484375 8.136719 0.167969 10 L 0.160156 10 L 0.140625 10.15625 C 0.0742188 10.605469 0.0273438 11.0625 0.0117188 11.523438 C 0.0078125 11.558594 0.0078125 11.59375 0.0078125 11.628906 C 0.00390625 11.664062 0.00390625 11.703125 0.00390625 11.738281 C 0 11.824219 0 11.910156 0 12 C 0 12.089844 0 12.175781 0.00390625 12.261719 C 0.00390625 12.296875 0.00390625 12.335938 0.0078125 12.371094 C 0.0078125 12.40625 0.0078125 12.441406 0.0117188 12.476562 C 0.0273438 12.9375 0.0742188 13.394531 0.140625 13.84375 L 0.160156 14 L 0.167969 14 C 0.476562 15.804688 1.1875 17.476562 2.207031 18.914062 L 2.199219 18.921875 L 2.398438 19.199219 C 3.039062 20.078125 3.839844 20.839844 4.71875 21.558594 L 5 21.761719 L 5.015625 21.742188 C 6.472656 22.789062 8.167969 23.519531 10 23.832031 L 10 23.839844 L 10.15625 23.859375 C 10.683594 23.9375 11.21875 23.984375 11.761719 23.996094 C 11.839844 24 11.921875 24 12 24 C 12.078125 24 12.15625 24 12.238281 23.996094 C 12.78125 23.984375 13.316406 23.9375 13.84375 23.859375 L 14 23.839844 L 14 23.832031 C 15.871094 23.515625 17.601562 22.757812 19.074219 21.675781 L 19.078125 21.679688 L 19.140625 21.628906 C 19.710938 21.203125 20.242188 20.730469 20.726562 20.214844 C 21.074219 19.855469 21.390625 19.476562 21.679688 19.078125 L 21.878906 18.800781 L 21.875 18.796875 C 22.851562 17.382812 23.535156 15.753906 23.832031 14 Z M 23.199219 12.15625 C 23.191406 12.503906 23.15625 12.851562 23.121094 13.199219 L 20.71875 13.199219 C 20.722656 13.175781 20.722656 13.15625 20.726562 13.132812 C 20.769531 12.8125 20.792969 12.484375 20.796875 12.15625 C 20.800781 12.105469 20.800781 12.050781 20.800781 12 C 20.800781 11.949219 20.800781 11.894531 20.796875 11.84375 C 20.792969 11.515625 20.769531 11.1875 20.726562 10.867188 C 20.722656 10.84375 20.722656 10.820312 20.71875 10.800781 L 23.121094 10.800781 C 23.15625 11.148438 23.191406 11.496094 23.199219 11.84375 C 23.199219 11.894531 23.199219 11.949219 23.199219 12 C 23.199219 12.050781 23.199219 12.105469 23.199219 12.15625 Z M 23.019531 10 L 20.570312 10 C 20.34375 9.035156 19.957031 8.132812 19.441406 7.320312 L 21.167969 5.589844 C 22.082031 6.886719 22.726562 8.382812 23.019531 10 Z M 19.136719 20.617188 L 17.441406 18.921875 C 17.695312 18.714844 17.941406 18.492188 18.175781 18.25 C 18.507812 17.925781 18.808594 17.578125 19.085938 17.203125 L 20.8125 18.894531 C 20.316406 19.523438 19.753906 20.101562 19.136719 20.617188 Z M 18.765625 16.253906 L 18.71875 16.320312 C 18.160156 17.199219 17.441406 17.921875 16.601562 18.519531 L 16.199219 18.800781 C 15.472656 19.25 14.667969 19.589844 13.8125 19.789062 L 13.519531 19.839844 C 12.519531 20.039062 11.519531 20.039062 10.480469 19.839844 L 10.1875 19.789062 C 9.351562 19.597656 8.566406 19.269531 7.855469 18.835938 L 7.519531 18.601562 C 7.308594 18.464844 7.109375 18.320312 6.917969 18.167969 C 6.53125 17.847656 6.175781 17.492188 5.855469 17.105469 C 5.839844 17.089844 5.828125 17.074219 5.816406 17.058594 C 5.8125 17.054688 5.808594 17.050781 5.804688 17.046875 C 5.648438 16.851562 5.5 16.648438 5.359375 16.441406 L 5.269531 16.308594 C 4.78125 15.554688 4.417969 14.710938 4.210938 13.8125 L 4.160156 13.519531 C 4.101562 13.261719 4.0625 13.007812 4.035156 12.753906 C 4.035156 12.738281 4.03125 12.71875 4.03125 12.699219 C 4.027344 12.664062 4.023438 12.625 4.023438 12.589844 C 4.019531 12.539062 4.015625 12.488281 4.011719 12.4375 C 4.011719 12.425781 4.011719 12.414062 4.011719 12.402344 C 4.007812 12.34375 4.003906 12.289062 4.003906 12.230469 C 4.003906 12.21875 4.003906 12.210938 4.003906 12.199219 C 4 12.132812 4 12.066406 4 12 C 4 11.933594 4 11.867188 4.003906 11.800781 C 4.003906 11.789062 4.003906 11.78125 4.003906 11.769531 C 4.003906 11.710938 4.007812 11.65625 4.011719 11.597656 C 4.011719 11.585938 4.011719 11.574219 4.011719 11.5625 C 4.015625 11.511719 4.019531 11.460938 4.023438 11.410156 C 4.023438 11.375 4.027344 11.335938 4.03125 11.300781 C 4.03125 11.28125 4.035156 11.261719 4.035156 11.246094 C 4.0625 10.992188 4.101562 10.738281 4.160156 10.480469 L 4.210938 10.1875 C 4.898438 7.234375 7.234375 4.898438 10.1875 4.210938 L 10.480469 4.160156 C 11.480469 3.960938 12.480469 3.960938 13.519531 4.160156 L 13.8125 4.210938 C 15.28125 4.550781 16.59375 5.300781 17.632812 6.332031 C 17.835938 6.539062 18.03125 6.753906 18.21875 6.980469 C 18.964844 7.902344 19.511719 8.996094 19.789062 10.1875 L 19.839844 10.480469 C 19.882812 10.671875 19.917969 10.859375 19.941406 11.046875 C 19.980469 11.359375 20 11.679688 20 12 C 20 12.480469 19.921875 13 19.839844 13.519531 L 19.789062 13.8125 C 19.585938 14.691406 19.234375 15.511719 18.765625 16.253906 Z M 13.199219 23.121094 C 12.398438 23.199219 11.601562 23.199219 10.800781 23.121094 L 10.800781 20.71875 C 11.601562 20.839844 12.398438 20.839844 13.199219 20.71875 Z M 3.242188 18.957031 L 4.949219 17.25 C 5.429688 17.894531 6 18.472656 6.636719 18.964844 L 4.929688 20.667969 C 4.308594 20.160156 3.742188 19.585938 3.242188 18.957031 Z M 5.085938 3.207031 L 6.796875 4.914062 C 6.148438 5.394531 5.566406 5.957031 5.070312 6.589844 L 3.367188 4.886719 C 3.878906 4.265625 4.453125 3.703125 5.085938 3.207031 Z M 11.84375 3.203125 C 11.515625 3.207031 11.1875 3.230469 10.867188 3.273438 C 10.84375 3.277344 10.820312 3.277344 10.800781 3.28125 L 10.800781 0.878906 C 11.601562 0.800781 12.398438 0.800781 13.199219 0.878906 L 13.199219 3.28125 C 13.175781 3.277344 13.15625 3.277344 13.132812 3.273438 C 12.8125 3.230469 12.484375 3.207031 12.15625 3.203125 C 12.105469 3.199219 12.050781 3.199219 12 3.199219 C 11.949219 3.199219 11.894531 3.199219 11.84375 3.203125 Z M 20.6875 4.953125 L 19 6.640625 C 18.480469 6 17.921875 5.441406 17.28125 4.960938 L 18.980469 3.257812 C 19.609375 3.761719 20.179688 4.328125 20.6875 4.953125 Z M 18.316406 2.765625 L 16.582031 4.496094 C 15.792969 4.011719 14.925781 3.648438 14 3.429688 L 14 0.980469 C 15.578125 1.265625 17.039062 1.886719 18.316406 2.765625 Z M 10 0.980469 L 10 3.429688 C 9.105469 3.640625 8.261719 3.988281 7.492188 4.453125 L 5.753906 2.714844 C 7.015625 1.863281 8.453125 1.261719 10 0.980469 Z M 2.878906 5.519531 L 4.605469 7.246094 C 4.066406 8.078125 3.664062 9.007812 3.429688 10 L 0.980469 10 C 1.28125 8.355469 1.941406 6.832031 2.878906 5.519531 Z M 3.203125 11.84375 C 3.199219 11.894531 3.199219 11.949219 3.199219 12 C 3.199219 12.050781 3.199219 12.105469 3.203125 12.15625 C 3.207031 12.484375 3.230469 12.8125 3.273438 13.132812 C 3.277344 13.15625 3.277344 13.175781 3.28125 13.199219 L 0.878906 13.199219 C 0.84375 12.851562 0.808594 12.503906 0.800781 12.15625 C 0.800781 12.105469 0.800781 12.050781 0.800781 12 C 0.800781 11.949219 0.800781 11.894531 0.800781 11.84375 C 0.808594 11.496094 0.84375 11.148438 0.878906 10.800781 L 3.28125 10.800781 C 3.277344 10.824219 3.277344 10.84375 3.273438 10.867188 C 3.230469 11.1875 3.207031 11.515625 3.203125 11.84375 Z M 0.980469 14 L 3.429688 14 C 3.648438 14.933594 4.019531 15.8125 4.511719 16.609375 L 2.78125 18.339844 C 1.894531 17.058594 1.269531 15.585938 0.980469 14 Z M 5.59375 21.171875 L 7.339844 19.453125 C 8.148438 19.964844 9.042969 20.34375 10 20.570312 L 10 23.019531 C 8.386719 22.726562 6.890625 22.082031 5.59375 21.171875 Z M 14 23.019531 L 14 20.570312 C 15.003906 20.332031 15.9375 19.925781 16.777344 19.378906 L 18.503906 21.105469 C 17.183594 22.050781 15.65625 22.71875 14 23.019531 Z M 21.300781 18.21875 L 19.5625 16.484375 C 20.019531 15.722656 20.359375 14.886719 20.570312 14 L 23.019531 14 C 22.738281 15.539062 22.144531 16.96875 21.300781 18.21875 Z M 21.300781 18.21875"/>
    <path d="M10.800781 16.398438L9.640625 16.398438 9.640625 7.601562C9.640625 7.441406 9.519531 7.28125 9.359375 7.238281 9.199219 7.199219 9.039062 7.238281 8.921875 7.359375L6.921875 9.761719C6.761719 9.921875 6.800781 10.160156 6.960938 10.320312 7.121094 10.480469 7.359375 10.441406 7.519531 10.28125L8.800781 8.71875 8.800781 16.398438 7.601562 16.398438C7.359375 16.398438 7.199219 16.558594 7.199219 16.800781 7.199219 17.039062 7.359375 17.199219 7.601562 17.199219L10.800781 17.199219C11.039062 17.199219 11.199219 17.039062 11.199219 16.800781 11.199219 16.558594 11.039062 16.398438 10.800781 16.398438zM14.398438 10.800781C13.839844 10.800781 13.28125 10.921875 12.800781 11.199219L12.800781 8 16.761719 8C17 8 17.160156 7.839844 17.160156 7.601562 17.160156 7.359375 17 7.199219 16.761719 7.199219L12.398438 7.199219C12.160156 7.199219 12 7.359375 12 7.601562L12 12C12 12.160156 12.078125 12.320312 12.238281 12.359375 12.398438 12.441406 12.558594 12.398438 12.679688 12.28125 13.121094 11.839844 13.71875 11.601562 14.398438 11.601562 15.71875 11.601562 16.800781 12.679688 16.800781 14 16.800781 15.320312 15.71875 16.398438 14.398438 16.398438 13.71875 16.398438 13.121094 16.160156 12.679688 15.71875 12.519531 15.558594 12.28125 15.558594 12.121094 15.71875 11.960938 15.878906 11.960938 16.121094 12.121094 16.28125 12.679688 16.878906 13.519531 17.199219 14.398438 17.199219 16.160156 17.199219 17.601562 15.761719 17.601562 14 17.601562 12.238281 16.160156 10.800781 14.398438 10.800781zM14.398438 10.800781"/>
</svg>

<svg xmlns="http://www.w3.org/2000/svg" width="32" height="32" viewBox="0 0 24 24">
    <path d="M23.84 14l.02-.156c.078-.528.124-1.063.136-1.606C24 12.16 24 12.078 24 12c0-.078 0-.156-.004-.238a12.835 12.835 0 0 0-.137-1.606L23.84 10h-.007a11.995 11.995 0 0 0-2.09-4.984l.02-.016-.203-.281c-.68-.88-1.48-1.64-2.36-2.32l-.277-.239-.031.031A11.956 11.956 0 0 0 14 .168V.16L13.742.13a9.223 9.223 0 0 0-.66-.078c-.02-.004-.043-.004-.062-.008a24.023 24.023 0 0 0-.149-.012l-.25-.015h-.02l-.277-.012h-.027C12.199 0 12.105 0 12.007 0h-.057c-.055 0-.114 0-.173.004-.547.008-1.09.055-1.62.137L10 .16v.007c-1.766.3-3.402.988-4.82 1.973l-.02-.02-.281.2C4 3 3.199 3.76 2.48 4.64l-.199.28.028.028A11.936 11.936 0 0 0 .168 10H.16l-.02.156c-.066.45-.113.906-.128 1.367-.004.036-.004.07-.004.106-.004.035-.004.074-.004.11C0 11.823 0 11.91 0 12a5.761 5.761 0 0 0 .008.371 12.178 12.178 0 0 0 .133 1.473L.16 14h.007a11.981 11.981 0 0 0 2.039 4.914l-.008.008.2.277c.64.88 1.44 1.64 2.32 2.36l.281.203.016-.02A11.995 11.995 0 0 0 10 23.832v.008l.156.02c.528.078 1.063.124 1.606.136.078.004.16.004.238.004.078 0 .156 0 .238-.004a12.835 12.835 0 0 0 1.606-.137l.156-.02v-.007a11.936 11.936 0 0 0 5.074-2.156l.004.004.063-.051c.57-.426 1.101-.899 1.586-1.414.347-.36.664-.738.953-1.137l.199-.277-.004-.004A11.949 11.949 0 0 0 23.832 14zm-.64-1.844c-.009.348-.044.696-.079 1.043H20.72c.004-.023.004-.043.008-.066.043-.32.066-.649.07-.977.004-.05.004-.105.004-.156 0-.05 0-.105-.004-.156a8.092 8.092 0 0 0-.07-.977c-.004-.023-.004-.047-.008-.066h2.402c.035.347.07.695.078 1.043v.312zM23.02 10h-2.45a8.718 8.718 0 0 0-1.129-2.68l1.727-1.73A11.076 11.076 0 0 1 23.02 10zm-3.883 10.617l-1.696-1.695c.254-.207.5-.43.735-.672.332-.324.633-.672.91-1.047l1.727 1.692a11.644 11.644 0 0 1-1.676 1.722zm-.371-4.363l-.047.066a7.886 7.886 0 0 1-2.117 2.2l-.403.28c-.726.45-1.531.79-2.387.99l-.292.05c-1 .2-2 .2-3.04 0l-.293-.05a7.843 7.843 0 0 1-2.332-.954l-.335-.234a7.611 7.611 0 0 1-.602-.434 8.031 8.031 0 0 1-1.063-1.063c-.015-.015-.027-.03-.039-.046l-.011-.012a9.645 9.645 0 0 1-.446-.606l-.09-.132a7.829 7.829 0 0 1-1.058-2.497l-.05-.292a6.645 6.645 0 0 1-.126-.766c0-.016-.004-.035-.004-.055a8455.431 8455.431 0 0 1-.02-.262v-.035c-.003-.058-.007-.113-.007-.172v-.03C4 12.132 4 12.065 4 12s0-.133.004-.2v-.03c0-.06.004-.114.008-.172v-.036a8455.431 8455.431 0 0 1 .02-.261c0-.02.003-.04.003-.055.027-.254.067-.508.125-.766l.05-.293a8.033 8.033 0 0 1 5.978-5.976l.292-.05c1-.2 2-.2 3.04 0l.293.05a7.98 7.98 0 0 1 3.82 2.121c.203.207.398.422.586.648a7.979 7.979 0 0 1 1.57 3.207l.05.293c.044.192.079.38.102.567.04.312.059.633.059.953 0 .48-.078 1-.16 1.52l-.05.293a7.899 7.899 0 0 1-1.024 2.44zm-5.567 6.867c-.8.078-1.597.078-2.398 0V20.72c.8.12 1.597.12 2.398 0zm-9.957-4.164L4.95 17.25a8.883 8.883 0 0 0 1.688 1.715L4.93 20.668a11.273 11.273 0 0 1-1.688-1.711zm1.844-15.75l1.71 1.707A8.998 8.998 0 0 0 5.07 6.59L3.367 4.887a11.094 11.094 0 0 1 1.719-1.68zm6.758-.004a8.092 8.092 0 0 0-.977.07c-.023.004-.047.004-.066.008V.88c.8-.078 1.597-.078 2.398 0V3.28c-.023-.004-.043-.004-.066-.008a8.092 8.092 0 0 0-.977-.07C12.106 3.2 12.051 3.2 12 3.2c-.05 0-.105 0-.156.004zm8.844 1.75L19 6.641a9.702 9.702 0 0 0-1.719-1.68l1.7-1.703c.628.504 1.199 1.07 1.706 1.695zm-2.372-2.187l-1.734 1.73A8.794 8.794 0 0 0 14 3.43V.98c1.578.286 3.04.907 4.316 1.786zM10 .98v2.45a8.715 8.715 0 0 0-2.508 1.023L5.754 2.715A11.148 11.148 0 0 1 10 .98zM2.879 5.52l1.726 1.726A8.775 8.775 0 0 0 3.43 10H.98c.301-1.645.961-3.168 1.899-4.48zm.324 6.324c-.004.05-.004.105-.004.156 0 .05 0 .105.004.156.004.328.027.656.07.977.004.023.004.043.008.066H.88c-.035-.347-.07-.695-.078-1.043V12v-.156c.008-.348.043-.696.078-1.043H3.28c-.004.023-.004.043-.008.066-.043.32-.066.649-.07.977zM.98 14h2.45a8.78 8.78 0 0 0 1.082 2.61l-1.73 1.73A11.128 11.128 0 0 1 .98 14zm4.614 7.172l1.746-1.719A8.72 8.72 0 0 0 10 20.57v2.45a11.133 11.133 0 0 1-4.406-1.848zM14 23.02v-2.45a8.806 8.806 0 0 0 2.777-1.191l1.727 1.726A11.152 11.152 0 0 1 14 23.02zm7.3-4.801l-1.738-1.735A8.763 8.763 0 0 0 20.57 14h2.45a11.097 11.097 0 0 1-1.72 4.219zm0 0"/>
    <path d="M10.8 16.398H9.64V7.602c0-.16-.12-.32-.28-.364-.16-.039-.32 0-.438.121l-2 2.403c-.16.16-.121.398.039.558.16.16.398.121.559-.039L8.8 8.72v7.68H7.603c-.243 0-.403.16-.403.402 0 .238.16.398.403.398H10.8c.238 0 .398-.16.398-.398 0-.242-.16-.403-.398-.403zm0 0M14.398 10.8c-.558 0-1.117.122-1.597.4V8h3.96c.239 0 .4-.16.4-.398 0-.243-.161-.403-.4-.403h-4.363c-.238 0-.398.16-.398.403V12c0 .16.078.32.238.36.16.081.32.038.442-.079.441-.441 1.039-.68 1.718-.68A2.407 2.407 0 0 1 16.801 14a2.407 2.407 0 0 1-2.403 2.398c-.68 0-1.277-.238-1.718-.68a.385.385 0 0 0-.559 0 .39.39 0 0 0 0 .563c.559.598 1.399.918 2.277.918A3.21 3.21 0 0 0 17.602 14a3.21 3.21 0 0 0-3.204-3.2zm0 0"/>
</svg>
